pictures/qrcode.svg

<svg xmlns="http://www.w3.org/2000/svg" width="270" height="270"><title>QR Code</title><desc>http://goo.gl/SYIzVP</desc><path fill="#fff" d="M0 0h270v270H0z"/><path d="M10 10h10v10H10zm10 0h10v10H20zm10 0h10v10H30zm10 0h10v10H40zm10 0h10v10H50zm10 0h10v10H60zm10 0h10v10H70zm30 0h10v10h-10zm40 0h10v10h-10zm10 0h10v10h-10zm20 0h10v10h-10zm20 0h10v10h-10zm10 0h10v10h-10zm10 0h10v10h-10zm10 0h10v10h-10zm10 0h10v10h-10zm10 0h10v10h-10zm10 0h10v10h-10zM10 20h10v10H10zm60 0h10v10H70zm20 0h10v10H90zm10 0h10v10h-10zm20 0h10v10h-10zm10 0h10v10h-10zm10 0h10v10h-10zm20 0h10v10h-10zm10 0h10v10h-10zm20 0h10v10h-10zm60 0h10v10h-10zM10 30h10v10H10zm20 0h10v10H30zm10 0h10v10H40zm10 0h10v10H50zm20 0h10v10H70zm30 0h10v10h-10zm10 0h10v10h-10zm10 0h10v10h-10zm40 0h10v10h-10zm30 0h10v10h-10zm20 0h10v10h-10zm10 0h10v10h-10zm10 0h10v10h-10zm20 0h10v10h-10zM10 40h10v10H10zm20 0h10v10H30zm10 0h10v10H40zm10 0h10v10H50zm20 0h10v10H70zm20 0h10v10H90zm10 0h10v10h-10zm20 0h10v10h-10zm30 0h10v10h-10zm40 0h10v10h-10zm20 0h10v10h-10zm10 0h10v10h-10zm10 0h10v10h-10zm20 0h10v10h-10zM10 50h10v10H10zm20 0h10v10H30zm10 0h10v10H40zm10 0h10v10H50zm20 0h10v10H70zm40 0h10v10h-10zm20 0h10v10h-10zm20 0h10v10h-10zm10 0h10v10h-10zm10 0h10v10h-10zm20 0h10v10h-10zm20 0h10v10h-10zm10 0h10v10h-10zm10 0h10v10h-10zm20 0h10v10h-10zM10 60h10v10H10zm60 0h10v10H70zm20 0h10v10H90zm20 0h10v10h-10zm30 0h10v10h-10zm10 0h10v10h-10zm10 0h10v10h-10zm10 0h10v10h-10zm20 0h10v10h-10zm60 0h10v10h-10zM10 70h10v10H10zm10 0h10v10H20zm10 0h10v10H30zm10 0h10v10H40zm10 0h10v10H50zm10 0h10v10H60zm10 0h10v10H70zm20 0h10v10H90zm20 0h10v10h-10zm20 0h10v10h-10zm20 0h10v10h-10zm20 0h10v10h-10zm20 0h10v10h-10zm10 0h10v10h-10zm10 0h10v10h-10zm10 0h10v10h-10zm10 0h10v10h-10zm10 0h10v10h-10zm10 0h10v10h-10zM130 80h10v10h-10zm30 0h10v10h-10zM10 90h10v10H10zm10 0h10v10H20zm10 0h10v10H30zm10 0h10v10H40zm10 0h10v10H50zm20 0h10v10H70zm10 0h10v10H80zm10 0h10v10H90zm10 0h10v10h-10zm10 0h10v10h-10zm20 0h10v10h-10zm20 0h10v10h-10zm20 0h10v10h-10zm10 0h10v10h-10zm20 0h10v10h-10zm20 0h10v10h-10zm20 0h10v10h-10zM20 100h10v10H20zm10 0h10v10H30zm20 0h10v10H50zm30 0h10v10H80zm10 0h10v10H90zm10 0h10v10h-10zm50 0h10v10h-10zm10 0h10v10h-10zm10 0h10v10h-10zm30 0h10v10h-10zm40 0h10v10h-10zM20 110h10v10H20zm10 0h10v10H30zm30 0h10v10H60zm10 0h10v10H70zm10 0h10v10H80zm10 0h10v10H90zm10 0h10v10h-10zm20 0h10v10h-10zm10 0h10v10h-10zm30 0h10v10h-10zm10 0h10v10h-10zm10 0h10v10h-10zm20 0h10v10h-10zm10 0h10v10h-10zm10 0h10v10h-10zm20 0h10v10h-10zm10 0h10v10h-10zM80 120h10v10H80zm10 0h10v10H90zm10 0h10v10h-10zm10 0h10v10h-10zm10 0h10v10h-10zm60 0h10v10h-10zm20 0h10v10h-10zm10 0h10v10h-10zm40 0h10v10h-10zM70 130h10v10H70zm10 0h10v10H80zm20 0h10v10h-10zm20 0h10v10h-10zm40 0h10v10h-10zm10 0h10v10h-10zm20 0h10v10h-10zm20 0h10v10h-10zm20 0h10v10h-10zm10 0h10v10h-10zm10 0h10v10h-10zM10 140h10v10H10zm40 0h10v10H50zm30 0h10v10H80zm30 0h10v10h-10zm20 0h10v10h-10zm10 0h10v10h-10zm20 0h10v10h-10zm10 0h10v10h-10zm30 0h10v10h-10zm20 0h10v10h-10zm20 0h10v10h-10zM10 150h10v10H10zm20 0h10v10H30zm20 0h10v10H50zm20 0h10v10H70zm20 0h10v10H90zm20 0h10v10h-10zm30 0h10v10h-10zm10 0h10v10h-10zm10 0h10v10h-10zm10 0h10v10h-10zm10 0h10v10h-10zm20 0h10v10h-10zm10 0h10v10h-10zm10 0h10v10h-10zm20 0h10v10h-10zm10 0h10v10h-10zM10 160h10v10H10zm20 0h10v10H30zm20 0h10v10H50zm10 0h10v10H60zm50 0h10v10h-10zm20 0h10v10h-10zm10 0h10v10h-10zm30 0h10v10h-10zm30 0h10v10h-10zm20 0h10v10h-10zm30 0h10v10h-10zM10 170h10v10H10zm60 0h10v10H70zm10 0h10v10H80zm10 0h10v10H90zm10 0h10v10h-10zm30 0h10v10h-10zm20 0h10v10h-10zm20 0h10v10h-10zm10 0h10v10h-10zm10 0h10v10h-10zm10 0h10v10h-10zm10 0h10v10h-10zm20 0h10v10h-10zM90 180h10v10H90zm70 0h10v10h-10zm10 0h10v10h-10zm40 0h10v10h-10zm10 0h10v10h-10zm10 0h10v10h-10zM10 190h10v10H10zm10 0h10v10H20zm10 0h10v10H30zm10 0h10v10H40zm10 0h10v10H50zm10 0h10v10H60zm10 0h10v10H70zm20 0h10v10H90zm20 0h10v10h-10zm10 0h10v10h-10zm10 0h10v10h-10zm40 0h10v10h-10zm20 0h10v10h-10zm20 0h10v10h-10zm10 0h10v10h-10zm10 0h10v10h-10zm10 0h10v10h-10zm10 0h10v10h-10zM10 200h10v10H10zm60 0h10v10H70zm30 0h10v10h-10zm20 0h10v10h-10zm30 0h10v10h-10zm10 0h10v10h-10zm10 0h10v10h-10zm40 0h10v10h-10zm10 0h10v10h-10zm30 0h10v10h-10zM10 210h10v10H10zm20 0h10v10H30zm10 0h10v10H40zm10 0h10v10H50zm20 0h10v10H70zm20 0h10v10H90zm10 0h10v10h-10zm20 0h10v10h-10zm40 0h10v10h-10zm10 0h10v10h-10zm10 0h10v10h-10zm10 0h10v10h-10zm10 0h10v10h-10zm10 0h10v10h-10zm10 0h10v10h-10zm10 0h10v10h-10zm10 0h10v10h-10zm10 0h10v10h-10zM10 220h10v10H10zm20 0h10v10H30zm10 0h10v10H40zm10 0h10v10H50zm20 0h10v10H70zm20 0h10v10H90zm40 0h10v10h-10zm10 0h10v10h-10zm10 0h10v10h-10zm10 0h10v10h-10zm20 0h10v10h-10zm10 0h10v10h-10zm20 0h10v10h-10zm20 0h10v10h-10zm10 0h10v10h-10zm10 0h10v10h-10zM10 230h10v10H10zm20 0h10v10H30zm10 0h10v10H40zm10 0h10v10H50zm20 0h10v10H70zm20 0h10v10H90zm10 0h10v10h-10zm10 0h10v10h-10zm30 0h10v10h-10zm10 0h10v10h-10zm20 0h10v10h-10zm30 0h10v10h-10zm30 0h10v10h-10zm20 0h10v10h-10zM10 240h10v10H10zm60 0h10v10H70zm20 0h10v10H90zm10 0h10v10h-10zm30 0h10v10h-10zm10 0h10v10h-10zm20 0h10v10h-10zm10 0h10v10h-10zm10 0h10v10h-10zm10 0h10v10h-10zm10 0h10v10h-10zm10 0h10v10h-10zm10 0h10v10h-10zm30 0h10v10h-10zM10 250h10v10H10zm10 0h10v10H20zm10 0h10v10H30zm10 0h10v10H40zm10 0h10v10H50zm10 0h10v10H60zm10 0h10v10H70zm20 0h10v10H90zm40 0h10v10h-10zm20 0h10v10h-10zm30 0h10v10h-10zm20 0h10v10h-10zm10 0h10v10h-10zm10 0h10v10h-10zm10 0h10v10h-10zm10 0h10v10h-10zm10 0h10v10h-10z"/></svg>

<?xml version="1.0" standalone="no"?>
<svg xmlns="http://www.w3.org/2000/svg" version="1.1" width="270" height="270">
	<!-- Created with https://api.qrserver.com (QR Code API, see goQR.me/api for information) -->
	<title>QR Code</title>
	<desc>http://goo.gl/SYIzVP</desc>
	<rect style="fill:rgb(255, 255, 255);fill-opacity:1" x="0" y="0" width="270" height="270" />
	<g id="elements">
		<path style="fill:rgb(0, 0, 0)" d="M 10,10 l 10,0 0,10 -10,0 z M 20,10 l 10,0 0,10 -10,0 z M 30,10 l 10,0 0,10 -10,0 z M 40,10 l 10,0 0,10 -10,0 z M 50,10 l 10,0 0,10 -10,0 z M 60,10 l 10,0 0,10 -10,0 z M 70,10 l 10,0 0,10 -10,0 z M 100,10 l 10,0 0,10 -10,0 z M 140,10 l 10,0 0,10 -10,0 z M 150,10 l 10,0 0,10 -10,0 z M 170,10 l 10,0 0,10 -10,0 z M 190,10 l 10,0 0,10 -10,0 z M 200,10 l 10,0 0,10 -10,0 z M 210,10 l 10,0 0,10 -10,0 z M 220,10 l 10,0 0,10 -10,0 z M 230,10 l 10,0 0,10 -10,0 z M 240,10 l 10,0 0,10 -10,0 z M 250,10 l 10,0 0,10 -10,0 z M 10,20 l 10,0 0,10 -10,0 z M 70,20 l 10,0 0,10 -10,0 z M 90,20 l 10,0 0,10 -10,0 z M 100,20 l 10,0 0,10 -10,0 z M 120,20 l 10,0 0,10 -10,0 z M 130,20 l 10,0 0,10 -10,0 z M 140,20 l 10,0 0,10 -10,0 z M 160,20 l 10,0 0,10 -10,0 z M 170,20 l 10,0 0,10 -10,0 z M 190,20 l 10,0 0,10 -10,0 z M 250,20 l 10,0 0,10 -10,0 z M 10,30 l 10,0 0,10 -10,0 z M 30,30 l 10,0 0,10 -10,0 z M 40,30 l 10,0 0,10 -10,0 z M 50,30 l 10,0 0,10 -10,0 z M 70,30 l 10,0 0,10 -10,0 z M 100,30 l 10,0 0,10 -10,0 z M 110,30 l 10,0 0,10 -10,0 z M 120,30 l 10,0 0,10 -10,0 z M 160,30 l 10,0 0,10 -10,0 z M 190,30 l 10,0 0,10 -10,0 z M 210,30 l 10,0 0,10 -10,0 z M 220,30 l 10,0 0,10 -10,0 z M 230,30 l 10,0 0,10 -10,0 z M 250,30 l 10,0 0,10 -10,0 z M 10,40 l 10,0 0,10 -10,0 z M 30,40 l 10,0 0,10 -10,0 z M 40,40 l 10,0 0,10 -10,0 z M 50,40 l 10,0 0,10 -10,0 z M 70,40 l 10,0 0,10 -10,0 z M 90,40 l 10,0 0,10 -10,0 z M 100,40 l 10,0 0,10 -10,0 z M 120,40 l 10,0 0,10 -10,0 z M 150,40 l 10,0 0,10 -10,0 z M 190,40 l 10,0 0,10 -10,0 z M 210,40 l 10,0 0,10 -10,0 z M 220,40 l 10,0 0,10 -10,0 z M 230,40 l 10,0 0,10 -10,0 z M 250,40 l 10,0 0,10 -10,0 z M 10,50 l 10,0 0,10 -10,0 z M 30,50 l 10,0 0,10 -10,0 z M 40,50 l 10,0 0,10 -10,0 z M 50,50 l 10,0 0,10 -10,0 z M 70,50 l 10,0 0,10 -10,0 z M 110,50 l 10,0 0,10 -10,0 z M 130,50 l 10,0 0,10 -10,0 z M 150,50 l 10,0 0,10 -10,0 z M 160,50 l 10,0 0,10 -10,0 z M 170,50 l 10,0 0,10 -10,0 z M 190,50 l 10,0 0,10 -10,0 z M 210,50 l 10,0 0,10 -10,0 z M 220,50 l 10,0 0,10 -10,0 z M 230,50 l 10,0 0,10 -10,0 z M 250,50 l 10,0 0,10 -10,0 z M 10,60 l 10,0 0,10 -10,0 z M 70,60 l 10,0 0,10 -10,0 z M 90,60 l 10,0 0,10 -10,0 z M 110,60 l 10,0 0,10 -10,0 z M 140,60 l 10,0 0,10 -10,0 z M 150,60 l 10,0 0,10 -10,0 z M 160,60 l 10,0 0,10 -10,0 z M 170,60 l 10,0 0,10 -10,0 z M 190,60 l 10,0 0,10 -10,0 z M 250,60 l 10,0 0,10 -10,0 z M 10,70 l 10,0 0,10 -10,0 z M 20,70 l 10,0 0,10 -10,0 z M 30,70 l 10,0 0,10 -10,0 z M 40,70 l 10,0 0,10 -10,0 z M 50,70 l 10,0 0,10 -10,0 z M 60,70 l 10,0 0,10 -10,0 z M 70,70 l 10,0 0,10 -10,0 z M 90,70 l 10,0 0,10 -10,0 z M 110,70 l 10,0 0,10 -10,0 z M 130,70 l 10,0 0,10 -10,0 z M 150,70 l 10,0 0,10 -10,0 z M 170,70 l 10,0 0,10 -10,0 z M 190,70 l 10,0 0,10 -10,0 z M 200,70 l 10,0 0,10 -10,0 z M 210,70 l 10,0 0,10 -10,0 z M 220,70 l 10,0 0,10 -10,0 z M 230,70 l 10,0 0,10 -10,0 z M 240,70 l 10,0 0,10 -10,0 z M 250,70 l 10,0 0,10 -10,0 z M 130,80 l 10,0 0,10 -10,0 z M 160,80 l 10,0 0,10 -10,0 z M 10,90 l 10,0 0,10 -10,0 z M 20,90 l 10,0 0,10 -10,0 z M 30,90 l 10,0 0,10 -10,0 z M 40,90 l 10,0 0,10 -10,0 z M 50,90 l 10,0 0,10 -10,0 z M 70,90 l 10,0 0,10 -10,0 z M 80,90 l 10,0 0,10 -10,0 z M 90,90 l 10,0 0,10 -10,0 z M 100,90 l 10,0 0,10 -10,0 z M 110,90 l 10,0 0,10 -10,0 z M 130,90 l 10,0 0,10 -10,0 z M 150,90 l 10,0 0,10 -10,0 z M 170,90 l 10,0 0,10 -10,0 z M 180,90 l 10,0 0,10 -10,0 z M 200,90 l 10,0 0,10 -10,0 z M 220,90 l 10,0 0,10 -10,0 z M 240,90 l 10,0 0,10 -10,0 z M 20,100 l 10,0 0,10 -10,0 z M 30,100 l 10,0 0,10 -10,0 z M 50,100 l 10,0 0,10 -10,0 z M 80,100 l 10,0 0,10 -10,0 z M 90,100 l 10,0 0,10 -10,0 z M 100,100 l 10,0 0,10 -10,0 z M 150,100 l 10,0 0,10 -10,0 z M 160,100 l 10,0 0,10 -10,0 z M 170,100 l 10,0 0,10 -10,0 z M 200,100 l 10,0 0,10 -10,0 z M 240,100 l 10,0 0,10 -10,0 z M 20,110 l 10,0 0,10 -10,0 z M 30,110 l 10,0 0,10 -10,0 z M 60,110 l 10,0 0,10 -10,0 z M 70,110 l 10,0 0,10 -10,0 z M 80,110 l 10,0 0,10 -10,0 z M 90,110 l 10,0 0,10 -10,0 z M 100,110 l 10,0 0,10 -10,0 z M 120,110 l 10,0 0,10 -10,0 z M 130,110 l 10,0 0,10 -10,0 z M 160,110 l 10,0 0,10 -10,0 z M 170,110 l 10,0 0,10 -10,0 z M 180,110 l 10,0 0,10 -10,0 z M 200,110 l 10,0 0,10 -10,0 z M 210,110 l 10,0 0,10 -10,0 z M 220,110 l 10,0 0,10 -10,0 z M 240,110 l 10,0 0,10 -10,0 z M 250,110 l 10,0 0,10 -10,0 z M 80,120 l 10,0 0,10 -10,0 z M 90,120 l 10,0 0,10 -10,0 z M 100,120 l 10,0 0,10 -10,0 z M 110,120 l 10,0 0,10 -10,0 z M 120,120 l 10,0 0,10 -10,0 z M 180,120 l 10,0 0,10 -10,0 z M 200,120 l 10,0 0,10 -10,0 z M 210,120 l 10,0 0,10 -10,0 z M 250,120 l 10,0 0,10 -10,0 z M 70,130 l 10,0 0,10 -10,0 z M 80,130 l 10,0 0,10 -10,0 z M 100,130 l 10,0 0,10 -10,0 z M 120,130 l 10,0 0,10 -10,0 z M 160,130 l 10,0 0,10 -10,0 z M 170,130 l 10,0 0,10 -10,0 z M 190,130 l 10,0 0,10 -10,0 z M 210,130 l 10,0 0,10 -10,0 z M 230,130 l 10,0 0,10 -10,0 z M 240,130 l 10,0 0,10 -10,0 z M 250,130 l 10,0 0,10 -10,0 z M 10,140 l 10,0 0,10 -10,0 z M 50,140 l 10,0 0,10 -10,0 z M 80,140 l 10,0 0,10 -10,0 z M 110,140 l 10,0 0,10 -10,0 z M 130,140 l 10,0 0,10 -10,0 z M 140,140 l 10,0 0,10 -10,0 z M 160,140 l 10,0 0,10 -10,0 z M 170,140 l 10,0 0,10 -10,0 z M 200,140 l 10,0 0,10 -10,0 z M 220,140 l 10,0 0,10 -10,0 z M 240,140 l 10,0 0,10 -10,0 z M 10,150 l 10,0 0,10 -10,0 z M 30,150 l 10,0 0,10 -10,0 z M 50,150 l 10,0 0,10 -10,0 z M 70,150 l 10,0 0,10 -10,0 z M 90,150 l 10,0 0,10 -10,0 z M 110,150 l 10,0 0,10 -10,0 z M 140,150 l 10,0 0,10 -10,0 z M 150,150 l 10,0 0,10 -10,0 z M 160,150 l 10,0 0,10 -10,0 z M 170,150 l 10,0 0,10 -10,0 z M 180,150 l 10,0 0,10 -10,0 z M 200,150 l 10,0 0,10 -10,0 z M 210,150 l 10,0 0,10 -10,0 z M 220,150 l 10,0 0,10 -10,0 z M 240,150 l 10,0 0,10 -10,0 z M 250,150 l 10,0 0,10 -10,0 z M 10,160 l 10,0 0,10 -10,0 z M 30,160 l 10,0 0,10 -10,0 z M 50,160 l 10,0 0,10 -10,0 z M 60,160 l 10,0 0,10 -10,0 z M 110,160 l 10,0 0,10 -10,0 z M 130,160 l 10,0 0,10 -10,0 z M 140,160 l 10,0 0,10 -10,0 z M 170,160 l 10,0 0,10 -10,0 z M 200,160 l 10,0 0,10 -10,0 z M 220,160 l 10,0 0,10 -10,0 z M 250,160 l 10,0 0,10 -10,0 z M 10,170 l 10,0 0,10 -10,0 z M 70,170 l 10,0 0,10 -10,0 z M 80,170 l 10,0 0,10 -10,0 z M 90,170 l 10,0 0,10 -10,0 z M 100,170 l 10,0 0,10 -10,0 z M 130,170 l 10,0 0,10 -10,0 z M 150,170 l 10,0 0,10 -10,0 z M 170,170 l 10,0 0,10 -10,0 z M 180,170 l 10,0 0,10 -10,0 z M 190,170 l 10,0 0,10 -10,0 z M 200,170 l 10,0 0,10 -10,0 z M 210,170 l 10,0 0,10 -10,0 z M 230,170 l 10,0 0,10 -10,0 z M 90,180 l 10,0 0,10 -10,0 z M 160,180 l 10,0 0,10 -10,0 z M 170,180 l 10,0 0,10 -10,0 z M 210,180 l 10,0 0,10 -10,0 z M 220,180 l 10,0 0,10 -10,0 z M 230,180 l 10,0 0,10 -10,0 z M 10,190 l 10,0 0,10 -10,0 z M 20,190 l 10,0 0,10 -10,0 z M 30,190 l 10,0 0,10 -10,0 z M 40,190 l 10,0 0,10 -10,0 z M 50,190 l 10,0 0,10 -10,0 z M 60,190 l 10,0 0,10 -10,0 z M 70,190 l 10,0 0,10 -10,0 z M 90,190 l 10,0 0,10 -10,0 z M 110,190 l 10,0 0,10 -10,0 z M 120,190 l 10,0 0,10 -10,0 z M 130,190 l 10,0 0,10 -10,0 z M 170,190 l 10,0 0,10 -10,0 z M 190,190 l 10,0 0,10 -10,0 z M 210,190 l 10,0 0,10 -10,0 z M 220,190 l 10,0 0,10 -10,0 z M 230,190 l 10,0 0,10 -10,0 z M 240,190 l 10,0 0,10 -10,0 z M 250,190 l 10,0 0,10 -10,0 z M 10,200 l 10,0 0,10 -10,0 z M 70,200 l 10,0 0,10 -10,0 z M 100,200 l 10,0 0,10 -10,0 z M 120,200 l 10,0 0,10 -10,0 z M 150,200 l 10,0 0,10 -10,0 z M 160,200 l 10,0 0,10 -10,0 z M 170,200 l 10,0 0,10 -10,0 z M 210,200 l 10,0 0,10 -10,0 z M 220,200 l 10,0 0,10 -10,0 z M 250,200 l 10,0 0,10 -10,0 z M 10,210 l 10,0 0,10 -10,0 z M 30,210 l 10,0 0,10 -10,0 z M 40,210 l 10,0 0,10 -10,0 z M 50,210 l 10,0 0,10 -10,0 z M 70,210 l 10,0 0,10 -10,0 z M 90,210 l 10,0 0,10 -10,0 z M 100,210 l 10,0 0,10 -10,0 z M 120,210 l 10,0 0,10 -10,0 z M 160,210 l 10,0 0,10 -10,0 z M 170,210 l 10,0 0,10 -10,0 z M 180,210 l 10,0 0,10 -10,0 z M 190,210 l 10,0 0,10 -10,0 z M 200,210 l 10,0 0,10 -10,0 z M 210,210 l 10,0 0,10 -10,0 z M 220,210 l 10,0 0,10 -10,0 z M 230,210 l 10,0 0,10 -10,0 z M 240,210 l 10,0 0,10 -10,0 z M 250,210 l 10,0 0,10 -10,0 z M 10,220 l 10,0 0,10 -10,0 z M 30,220 l 10,0 0,10 -10,0 z M 40,220 l 10,0 0,10 -10,0 z M 50,220 l 10,0 0,10 -10,0 z M 70,220 l 10,0 0,10 -10,0 z M 90,220 l 10,0 0,10 -10,0 z M 130,220 l 10,0 0,10 -10,0 z M 140,220 l 10,0 0,10 -10,0 z M 150,220 l 10,0 0,10 -10,0 z M 160,220 l 10,0 0,10 -10,0 z M 180,220 l 10,0 0,10 -10,0 z M 190,220 l 10,0 0,10 -10,0 z M 210,220 l 10,0 0,10 -10,0 z M 230,220 l 10,0 0,10 -10,0 z M 240,220 l 10,0 0,10 -10,0 z M 250,220 l 10,0 0,10 -10,0 z M 10,230 l 10,0 0,10 -10,0 z M 30,230 l 10,0 0,10 -10,0 z M 40,230 l 10,0 0,10 -10,0 z M 50,230 l 10,0 0,10 -10,0 z M 70,230 l 10,0 0,10 -10,0 z M 90,230 l 10,0 0,10 -10,0 z M 100,230 l 10,0 0,10 -10,0 z M 110,230 l 10,0 0,10 -10,0 z M 140,230 l 10,0 0,10 -10,0 z M 150,230 l 10,0 0,10 -10,0 z M 170,230 l 10,0 0,10 -10,0 z M 200,230 l 10,0 0,10 -10,0 z M 230,230 l 10,0 0,10 -10,0 z M 250,230 l 10,0 0,10 -10,0 z M 10,240 l 10,0 0,10 -10,0 z M 70,240 l 10,0 0,10 -10,0 z M 90,240 l 10,0 0,10 -10,0 z M 100,240 l 10,0 0,10 -10,0 z M 130,240 l 10,0 0,10 -10,0 z M 140,240 l 10,0 0,10 -10,0 z M 160,240 l 10,0 0,10 -10,0 z M 170,240 l 10,0 0,10 -10,0 z M 180,240 l 10,0 0,10 -10,0 z M 190,240 l 10,0 0,10 -10,0 z M 200,240 l 10,0 0,10 -10,0 z M 210,240 l 10,0 0,10 -10,0 z M 220,240 l 10,0 0,10 -10,0 z M 250,240 l 10,0 0,10 -10,0 z M 10,250 l 10,0 0,10 -10,0 z M 20,250 l 10,0 0,10 -10,0 z M 30,250 l 10,0 0,10 -10,0 z M 40,250 l 10,0 0,10 -10,0 z M 50,250 l 10,0 0,10 -10,0 z M 60,250 l 10,0 0,10 -10,0 z M 70,250 l 10,0 0,10 -10,0 z M 90,250 l 10,0 0,10 -10,0 z M 130,250 l 10,0 0,10 -10,0 z M 150,250 l 10,0 0,10 -10,0 z M 180,250 l 10,0 0,10 -10,0 z M 200,250 l 10,0 0,10 -10,0 z M 210,250 l 10,0 0,10 -10,0 z M 220,250 l 10,0 0,10 -10,0 z M 230,250 l 10,0 0,10 -10,0 z M 240,250 l 10,0 0,10 -10,0 z M 250,250 l 10,0 0,10 -10,0 z " />
	</g>
</svg>
